packages/icons/assets/Service.svg

<svg xmlns="http://www.w3.org/2000/svg" viewBox="0 0 16 16"><path fill="#414141" d="M8.00006 15.998.00006104 11.0989V9.93612L8.00604 14.8352 15.999 9.93612v1.16378L8.01105 15.992l-.01099.006zm0-2.5065L.00006104 8.59238V7.4286L8.00604 12.3337 15.999 7.43459v1.16479L8.01105 13.4905l-.01099.001zm0-2.4256L.00006104 6.16684V4.96707L8.00006-.00100708 15.988 4.95706v1.21077L8.00006 11.0599v.006zm0-1.15977L15.074 5.57195 7.99896 1.17876.924011 5.57195 8.00006 9.90613z"/></svg>

<svg xmlns="http://www.w3.org/2000/svg" viewBox="0 0 16 16"><path fill="#414141" d="m8 16-8-4.9V9.94l8 4.9 8-4.9v1.16L8 16zm0-2.5L0 8.6V7.42l8 4.9 8-4.9V8.6l-8 4.9zm0-2.43-8-4.9v-1.2L8 0l7.99 4.96v1.2L8 11.07zM8 9.9l7.07-4.34L8 1.17.92 5.58 8 9.91z"/></svg>
